icons/bookmark-outline.svg

<svg xmlns="http://www.w3.org/2000/svg" width="24" height="24" viewBox="0 0 24 24">
  <path d="M16,2 L8,2 C6.34314575,2 5,3.34314575 5,5 L5,20.2967426 C5,20.8805924 5.25512546,21.4352914 5.69841725,21.8152558 L5.82727365,21.916972 C6.66196955,22.522534 7.83561112,22.3950444 8.5185132,21.5983253 L12,17.536 L15.4814868,21.5983253 C15.8614512,22.0416171 16.4161502,22.2967789 17,22.2967789 C18.1045695,22.2967789 19,21.4013121 19,20.2967426 L19,5 C19,3.34314575 17.6568542,2 16,2 Z M8,4 L16,4 C16.5522847,4 17,4.44771525 17,5 L17,20.2967426 L12.7592566,15.3492086 C12.360161,14.8835971 11.639839,14.8835971 11.2407434,15.3492086 L7,20.2967426 L7,5 C7,4.44771525 7.44771525,4 8,4 Z"/>
</svg>

<svg xmlns="http://www.w3.org/2000/svg" viewBox="0 0 24 24">
  <path d="M16 2H8a3 3 0 0 0-3 3v15.3a2 2 0 0 0 .7 1.52l.13.1a2 2 0 0 0 2.69-.32L12 17.54l3.48 4.06A2 2 0 0 0 19 20.3V5a3 3 0 0 0-3-3zM8 4h8a1 1 0 0 1 1 1v15.3l-4.24-4.95a1 1 0 0 0-1.52 0L7 20.3V5a1 1 0 0 1 1-1z"/>
</svg>
